X: 32508
T: Planxty Burke
R: waltz
M: 3/4
K: Edorian
|:GF|E2 EF GA|B4 A2|G2 A2 B2|A2 F2 D2|D2 E2 D2|A2 F2 D2|D2 E2 D2|d2 F2 D2|
E2 EF GA|B2 G2 E2|E2 F2 E2|B2 G2 E2|d4 d2|d2 e2 f2|d6|B4:|
|:de|f2 e2 d2|e2 d2 c2|d2 c2 B2|A2 B2 =c2|d2 c2 B2|e2 d2 =c2|d2 c2 B2|A2 F2 ^D2|
E2 EF GA|B2 G2 E2|E2 F2 E2|B2 G2 E2|d4 d2|d2 e2 f2|d6|B4:|
|:c2|d2 e2 c2|d2 e2 =c2|d2 c2 B2|A2 F2 ^D2|e4 e2|e2 f2 e2|d2 B2 c2|d4 =c2|
^de f2 =d2|e2 B2 c2|d2 c2 B2|A2 F2 ^D2|e4 B2|cd e2 B2|G6|E4:|

